!!!OTL: N&auml;chtliches Abenteuer (42d), S. 138
!!!id: T0172
**kern
*clefG2
*k[b-]
*F:
{8a
=1
8a
8g
8a
8b-
=2
8cc}
4r
=3
{8a
=4
8a
8g
8a
8b-
=5
8cc
8b-
8a}
=6
{8a
=7
8a
8g
8a
8b-
=8
4cc}
=9
{4dd
=10
8a
8a
8a
8a
=11
8cc
8g
4g}
=12
{16g
16g
16g
16a
16b-
16b-
16cc
16cc
=13
8dd
8cc
8cc}
=14
{8a
=15
8cc
16cc
16cc
8cc
8b-
=16
8ee
8ee
8ee}
=17
{8cc
=18
8cc
16cc
16cc
8b-
8b-
=19
4a}
8r
==
*-
!!!minrhy: 16
!!!meters: 2/4 ]  ZZ[7
!!!cut: N&auml;chtliches Abenteuer (42d), S. 138
!!!reg: Luxemburg
!!!trd: Singendes Volk, Esch-Alzette 1937 posth.
!!!rhy1: X_  X_X_X_X_  X_0_   (x2)
!!!rhy2: X_  X_X_X_X_  X_X_X_
!!!key: T0172  16  F 2/4 ]  ZZ[7
!!!mod: SECHSTONSKALA DUR ?]  AMBITUS[6
!!!kad: 5352573
!!!akz: 35_35_35_35_26_57_53_
!!!fot: 'a__av_a__b__c__as'd__
!!!for: 'a__aw_av_aw_b__c__cw_
!!!fok: '/__^__/__\__/__/__\__
!! PHRAS[VORWIEGEND AUFTAKTIG]
!!!fkt: Liebeslieder
!!!bem: Heffingen, hhh Nikolaus Ewen, 9.9.1934
!! THILL, Mathias:
!! PR[45] 2K[0] 2G[8] 3K[9] 3G[8] 4A[2] 4Ü[0] 5A[0] 6K[0] 6G[0]
!! 7K[0] 7G[0] 8A[0] MEHR[0] SI[26] ABS[53] SR[8] SP[19]
!! ST[12] 2k[0] 2g[13] 3k[11] 3g[4] 4d[0] 4ü[0] 5d[0] 6k[0] 6g[0]
!! 7k[0] 7g[0] 8d[0] mehr[0] si[28] dm[-2] sr[13] sp[15]
!! 1F[46] 2F[43] 3F[7] 4F[0] LF[0] 2P[4] 3P[0] 4P[0] TRI[0] DF[4] AB[56]
!! TF[0] U3K[0] U3[0] U4[0] U4Ü[0] U5[0] U6K[0] U6[0] U7K[0] U7[0]
!! N1[9] N2K[0] N2[4] N3K[0] N3[31] N4[11] N4Ü[0] N5[35] N6K[0] N6[7]
!!!n7k: 0] N7[0] O1[2] O2K[0] O2[0] O3K[0] O3[0] HÖ[0
!!!RNB: symbol: &auml;      = a umlaut  (UTF-8: Å„)
